icons/1_Primary/SumoLogic.svg

<svg xmlns="http://www.w3.org/2000/svg" width="1024" height="1024" fill="none">
   <g clip-path="url(#a)">
      <path fill="#54688C" d="M512 1024c282.77 0 512-229.23 512-512S794.77 0 512 0 0 229.23 0 512s229.23 512 512 512Z"/>
      <path fill="#fff" d="M352.9 361.4c-12.7-2.7-21.8-5.1-26.9-6.3-6.3-1.8-11.2-4.2-13.6-7.6v-13.9c4.2-6.6 14.5-10.9 28.7-10.9 19.6 0 33.2 4.5 54.7 21.5l25.1-30.2c-25.4-21.2-47.1-28.7-78.6-28.7-36.3 0-61.3 14.8-71.3 36v45.9c7.9 15.4 26 24.2 62.2 32 13 3 21.8 5.1 26.9 6 6.6 2.1 12.7 4.8 16 9.7v16c-4.5 7.3-15.4 11.2-29.6 11.2-10.3.3-20.2-1.8-29.6-5.7-9.1-3.6-19.6-10.6-32.9-21.5l-26.9 29.9c29 25.7 53.5 34.4 88.2 34.4 37.2 0 63.5-14.2 73.4-36.9v-46.2c-8.4-17.2-28.7-26.2-65.8-34.7Zm401.5-70.1v182.5h-42.6v-19.3c-9.7 15.7-27.5 24.8-53.5 24.8-43.2 0-64.7-22.4-64.7-58v-130h46.5v117.5c0 19 10.3 30.2 30.2 30.2 23.3 0 37.5-13.3 37.5-37.8v-110h46.6v.1ZM531.8 606.9v127.5h-46.5V620.8c0-21.8-8.8-35.1-29-35.1s-32 15.1-32 36.3v112.4h-46.5V620.8c0-23.3-9.7-35.1-29-35.1-20.5 0-32 15.1-32 36.3v112.4h-46.5V551.9h43.2v20.2c10.6-17.5 28.1-26.3 52-26.3 23.3 0 40.8 9.7 50.8 26.9 12.4-17.8 30.8-26.9 54.7-26.9 38.8.1 60.8 23.4 60.8 61.1Zm139.8-62.8c-42 0-74.9 22.7-88.5 58.9v76.8c13.3 36.3 46.5 58.9 88.5 58.9s74.6-22.7 87.9-58.6v-77.4c-13.5-35.9-46.5-58.6-87.9-58.6Zm43 124.2c-7.3 19.3-22.7 30.8-43.2 30.8-20.2 0-36.3-11.5-43.5-30.8v-53.8c7.3-19.3 22.7-31.1 43.5-31.1 20.5 0 35.7 11.8 42.9 31.1l.3 53.8Z"/>
   </g>
   <defs>
      <clipPath id="a">
         <path fill="#fff" d="M0 0h1024v1024H0z"/>
      </clipPath>
   </defs>
</svg>

<svg width="1024" height="1024" viewBox="0 0 1024 1024" fill="none" xmlns="http://www.w3.org/2000/svg">
<g clip-path="url(#clip0_2_3579)">
<path d="M512 1024C794.77 1024 1024 794.77 1024 512C1024 229.23 794.77 0 512 0C229.23 0 0 229.23 0 512C0 794.77 229.23 1024 512 1024Z" fill="#54688C"/>
<path d="M352.9 361.4C340.2 358.7 331.1 356.3 326 355.1C319.7 353.3 314.8 350.9 312.4 347.5V333.6C316.6 327 326.9 322.7 341.1 322.7C360.7 322.7 374.3 327.2 395.8 344.2L420.9 314C395.5 292.8 373.8 285.3 342.3 285.3C306 285.3 281 300.1 271 321.3V367.2C278.9 382.6 297 391.4 333.2 399.2C346.2 402.2 355 404.3 360.1 405.2C366.7 407.3 372.8 410 376.1 414.9V430.9C371.6 438.2 360.7 442.1 346.5 442.1C336.2 442.4 326.3 440.3 316.9 436.4C307.8 432.8 297.3 425.8 284 414.9L257.1 444.8C286.1 470.5 310.6 479.2 345.3 479.2C382.5 479.2 408.8 465 418.7 442.3V396.1C410.3 378.9 390 369.9 352.9 361.4ZM754.4 291.3V473.8H711.8V454.5C702.1 470.2 684.3 479.3 658.3 479.3C615.1 479.3 593.6 456.9 593.6 421.3V291.3H640.1V408.8C640.1 427.8 650.4 439 670.3 439C693.6 439 707.8 425.7 707.8 401.2V291.2H754.4V291.3ZM531.8 606.9V734.4H485.3V620.8C485.3 599 476.5 585.7 456.3 585.7C436.1 585.7 424.3 600.8 424.3 622V734.4H377.8V620.8C377.8 597.5 368.1 585.7 348.8 585.7C328.3 585.7 316.8 600.8 316.8 622V734.4H270.3V551.9H313.5V572.1C324.1 554.6 341.6 545.8 365.5 545.8C388.8 545.8 406.3 555.5 416.3 572.7C428.7 554.9 447.1 545.8 471 545.8C509.8 545.9 531.8 569.2 531.8 606.9ZM671.6 544.1C629.6 544.1 596.7 566.8 583.1 603V679.8C596.4 716.1 629.6 738.7 671.6 738.7C713.6 738.7 746.2 716 759.5 680.1V602.7C746 566.8 713 544.1 671.6 544.1ZM714.6 668.3C707.3 687.6 691.9 699.1 671.4 699.1C651.2 699.1 635.1 687.6 627.9 668.3V614.5C635.2 595.2 650.6 583.4 671.4 583.4C691.9 583.4 707.1 595.2 714.3 614.5L714.6 668.3Z" fill="white"/>
</g>
<defs>
<clipPath id="clip0_2_3579">
<rect width="1024" height="1024" fill="white"/>
</clipPath>
</defs>
</svg>
